src/img/clients/sherp.svg

<svg width="183" height="132" viewBox="0 0 183 132" fill="none" xmlns="http://www.w3.org/2000/svg">
<path d="M38.6 32.9L34 11.3L42 9L74 59M138.4 58L150 11.3L141.9 9L128 29.5" stroke="#CAD5DD" stroke-width="5"/>
<path d="M70 35.5H80.3L87.2 3H97.5L103.2 35.5L133 39" stroke="#CAD5DD" stroke-width="5"/>
<path d="M32.0001 96C30.2319 96.0164 28.4645 96.0831 26.7001 96.2L26.6001 95.8V95.4C26.6001 95 26.7001 94.8 27.0001 94.7L28.3001 94.5L29.1001 94.1L29.4001 93.7V72.4C29.352 72.2073 29.2475 72.0332 29.1001 71.9C28.9001 71.7 28.7001 71.6 28.3001 71.6L27.0001 71.3C26.7001 71.2 26.6001 71 26.6001 70.6V69.8C28.3996 69.879 30.1997 69.9457 32.0001 70C33.7683 69.9815 35.5356 69.9148 37.3001 69.8V70.2L37.4001 70.6C37.4001 71 37.3001 71.2 37.0001 71.3C36.4001 71.3 36.0001 71.5 35.6001 71.6C35.3001 71.6 35.1001 71.7 34.9001 71.9C34.7526 72.0332 34.6482 72.2073 34.6001 72.4V94H42.4001V72.4C42.3252 72.194 42.1846 72.0184 42.0001 71.9C41.8001 71.7 41.6001 71.6 41.2001 71.6L39.9001 71.3C39.7001 71.2 39.5001 71 39.5001 70.6V70.2L39.6001 69.8C41.3663 69.8786 43.133 69.9453 44.9001 70C46.6683 69.9815 48.4356 69.9148 50.2001 69.8V70.2L50.3001 70.6C50.3001 71 50.2001 71.2 49.9001 71.3C49.4001 71.3 48.9001 71.5 48.6001 71.6C48.2001 71.6 48.0001 71.7 47.8001 71.9C47.6526 72.0332 47.5482 72.2073 47.5001 72.4V94H55.3001V72.4C55.2252 72.194 55.0846 72.0184 54.9001 71.9C54.8001 71.7 54.5001 71.6 54.2001 71.6L52.8001 71.3C52.6001 71.2 52.4001 71 52.4001 70.6V70.2L52.5001 69.8C55.1659 69.8991 57.8327 69.9658 60.5001 70L63.2001 69.8V70.6C63.2001 71 63.2001 71.2 62.9001 71.3C62.3001 71.3 61.9001 71.5 61.5001 71.6C61.2001 71.6 60.9001 71.7 60.8001 71.9C60.6156 72.0184 60.475 72.194 60.4001 72.4V93.7L60.8001 94.1L61.5001 94.5L62.9001 94.7C63.1001 94.8 63.3001 95 63.3001 95.4V95.8L63.2001 96.2C61.4339 96.1215 59.6672 96.0548 57.9001 96H32.0001V96ZM79.6001 72V81.6H85.2001C85.7001 81.6 86.1001 81.4 86.2001 81C86.5001 80.6 86.6001 80 86.8001 79C86.8001 78.8 86.8001 78.7 87.0001 78.6L87.5001 78.5H88.3001C88.1722 80.4975 88.1055 82.4985 88.1001 84.5L88.3001 86.7L87.9001 86.8H87.5001C87.1001 86.8 86.8001 86.6 86.8001 86.2C86.6001 85.2 86.4001 84.5 86.2001 84.2C86.0001 83.8 85.7001 83.6 85.2001 83.6H79.6001V92.6C79.6001 93.2 79.9001 93.6 80.6001 93.7C81.3001 93.9 82.5001 94 84.2001 94H85.8001C86.4339 94.0415 87.0696 93.9568 87.6704 93.7508C88.2712 93.5449 88.8251 93.2217 89.3001 92.8C89.7249 92.3821 90.0945 91.9116 90.4001 91.4L91.4001 89.7C91.4001 89.5 91.7001 89.4 92.0001 89.4L92.4001 89.5L93.0001 89.8L92.6001 90.9C92.4655 91.222 92.3649 91.5572 92.3001 91.9L92.1001 92.7C91.9204 93.7777 91.6867 94.8457 91.4001 95.9C91.2001 96.1 91.0001 96.2 90.7001 96.2H89.8001C88.468 96.1112 87.1345 96.0445 85.8001 96H76.8001C74.9987 96.0195 73.198 96.0862 71.4001 96.2V95.4C71.4001 95 71.4001 94.8 71.7001 94.8L73.9001 94.2C74.3001 93.9 74.6001 93.6 74.6001 93V73C74.6001 72.5 74.4001 72.1 74.0001 72C73.6001 71.7 72.8001 71.5 71.7001 71.3C71.5001 71.2 71.3001 71 71.3001 70.6V70.2L71.4001 69.8C73.164 69.9265 74.9317 69.9932 76.7001 70H85.0001C86.6361 70.0525 88.2738 69.9856 89.9001 69.8C90.2001 69.8 90.4001 69.8 90.5001 70.1L90.7001 71.3C90.7905 72.3516 90.9916 73.3907 91.3001 74.4L91.8001 76C91.6345 76.0387 91.4678 76.072 91.3001 76.1L90.9001 76.2C90.5001 76.2 90.3001 76.1 90.2001 75.8C89.9103 75.2089 89.576 74.6406 89.2001 74.1C89.0001 73.6 88.6001 73.1 88.2001 72.9C87.8001 72.6 87.4001 72.3 86.9001 72.2L85.0001 72H79.7001H79.6001ZM108.7 85V92.8C108.7 93.4 109 93.8 109.5 94.1L112.1 94.7C112.5 94.7 112.7 95 112.7 95.5V96.2C108.675 95.8777 104.637 95.7442 100.6 95.8V95.5C100.6 95.1 100.7 94.8 101 94.8L103.2 94.2C103.5 93.9 103.7 93.6 103.7 93V73C103.7 72.5 103.5 72 103.1 71.8C102.405 71.4958 101.658 71.3261 100.9 71.3C100.734 71.2527 100.592 71.1459 100.5 71V69.8C102.232 69.8943 103.966 69.961 105.7 70H111.7C114.7 70 116.8 70.6 118.4 72C120 73.2 120.8 75 120.8 77.3C120.833 78.3374 120.634 79.369 120.219 80.3203C119.804 81.2715 119.183 82.1185 118.4 82.8C117.571 83.4976 116.622 84.0396 115.6 84.4C114.5 84.9 113.2 85.1 111.7 85.1H108.7V85ZM109.9 83C111.5 83 112.9 82.7 113.9 81.8C114.9 81 115.3 79.6 115.3 77.6C115.3 75.9 114.9 74.5 114.1 73.5C113.4 72.5 112 72 109.9 72H108.7V83H109.9ZM136.6 93V93.7L137 94.2L137.7 94.5L139.1 94.8C139.4 94.8 139.5 95 139.5 95.4V96.2C136.834 96.1008 134.167 96.0342 131.5 96L128.8 96.2L128.7 95.8V95.4C128.7 95 128.8 94.8 129.1 94.8L130.4 94.5C130.8 94.5 131 94.3 131.2 94.2L131.5 93.7V72.4C131.452 72.2073 131.348 72.0332 131.2 71.9C131 71.7 130.8 71.6 130.4 71.6L129.1 71.3C128.8 71.2 128.7 71 128.7 70.6V69.8C130.5 69.879 132.3 69.9456 134.1 70H149.5C151.235 69.9818 152.969 69.9152 154.7 69.8V70.2L154.8 70.6C154.8 71 154.7 71.2 154.4 71.3C153.9 71.3 153.4 71.5 153.1 71.6C152.7 71.6 152.5 71.7 152.3 71.9C152.153 72.0332 152.048 72.2073 152 72.4V93.7C152 93.9 152.1 94 152.3 94.2L153.1 94.5L154.4 94.8C154.7 94.8 154.8 95 154.8 95.4V96.2C153.034 96.1215 151.267 96.0548 149.5 96C147.699 96.0174 145.898 96.0841 144.1 96.2V95.4C144.1 95 144.1 94.8 144.4 94.8L145.7 94.5C146.1 94.5 146.3 94.3 146.5 94.2C146.7 94 146.8 93.9 146.8 93.7V72H136.6V93V93Z" fill="#CAD5DD"/>
<path d="M152 44L181 57M51 39C29.3 44.6 21.4 48 2 58M26 107L64.1 128M64.1 128L78 107M64.1 128L59.5 107M157 107L118.9 128M118.9 128L105 107M118.9 128L123.5 107M83 59L87.9 50H96.4L100 59M118 45L109 59M43 48L47 60" stroke="#CAD5DD" stroke-width="5"/>
</svg>

<svg width="183" height="132" fill="none" xmlns="http://www.w3.org/2000/svg"><path d="M38.6 32.9 34 11.3 42 9l32 50M138.4 58 150 11.3 141.9 9 128 29.5" stroke="#DA802D" stroke-width="5"/><path d="M70 35.5h10.3L87.2 3h10.3l5.7 32.5L133 39" stroke="#DA802D" stroke-width="5"/><path d="M32 96a93.2 93.2 0 0 0-5.3.2l-.1-.4v-.4c0-.4.1-.6.4-.7l1.3-.2.8-.4.3-.4V72.4a1 1 0 0 0-.3-.5c-.2-.2-.4-.3-.8-.3l-1.3-.3c-.3-.1-.4-.3-.4-.7v-.8a394.6 394.6 0 0 0 5.4.2 97.5 97.5 0 0 0 5.3-.2v.4l.1.4c0 .4-.1.6-.4.7-.6 0-1 .2-1.4.3-.3 0-.5.1-.7.3a1 1 0 0 0-.3.5V94h7.8V72.4a1 1 0 0 0-.4-.5c-.2-.2-.4-.3-.8-.3l-1.3-.3c-.2-.1-.4-.3-.4-.7v-.4l.1-.4a394.6 394.6 0 0 0 5.3.2 97.5 97.5 0 0 0 5.3-.2v.4l.1.4c0 .4-.1.6-.4.7-.5 0-1 .2-1.3.3-.4 0-.6.1-.8.3a1 1 0 0 0-.3.5V94h7.8V72.4a1 1 0 0 0-.4-.5c-.1-.2-.4-.3-.7-.3l-1.4-.3c-.2-.1-.4-.3-.4-.7v-.4l.1-.4a329.6 329.6 0 0 0 8 .2l2.7-.2v.8c0 .4 0 .6-.3.7-.6 0-1 .2-1.4.3-.3 0-.6.1-.7.3a1 1 0 0 0-.4.5v21.3l.4.4.7.4 1.4.2c.2.1.4.3.4.7v.4l-.1.4a394.6 394.6 0 0 0-5.3-.2H32Zm47.6-24v9.6h5.6c.5 0 .9-.2 1-.6.3-.4.4-1 .6-2 0-.2 0-.3.2-.4l.5-.1h.8a98 98 0 0 0-.2 6l.2 2.2-.4.1h-.4c-.4 0-.7-.2-.7-.6-.2-1-.4-1.7-.6-2-.2-.4-.5-.6-1-.6h-5.6v9c0 .6.3 1 1 1.1.7.2 1.9.3 3.6.3h1.6a4.8 4.8 0 0 0 3.5-1.2 7 7 0 0 0 1.1-1.4l1-1.7c0-.2.3-.3.6-.3l.4.1.6.3-.4 1.1a5 5 0 0 0-.3 1l-.2.8a32.7 32.7 0 0 1-.7 3.2c-.2.2-.4.3-.7.3h-.9a120.2 120.2 0 0 0-4-.2h-9a103.1 103.1 0 0 0-5.4.2v-.8c0-.4 0-.6.3-.6l2.2-.6c.4-.3.7-.6.7-1.2V73c0-.5-.2-.9-.6-1-.4-.3-1.2-.5-2.3-.7-.2-.1-.4-.3-.4-.7v-.4l.1-.4a78.4 78.4 0 0 0 5.3.2H85a33.7 33.7 0 0 0 4.9-.2c.3 0 .5 0 .6.3l.2 1.2a15 15 0 0 0 .6 3.1l.5 1.6a8 8 0 0 1-.5.1l-.4.1c-.4 0-.6-.1-.7-.4a13 13 0 0 0-1-1.7c-.2-.5-.6-1-1-1.2-.4-.3-.8-.6-1.3-.7l-1.9-.2h-5.3Zm29.1 13v7.8c0 .6.3 1 .8 1.3l2.6.6c.4 0 .6.3.6.8v.7a129.2 129.2 0 0 0-12.1-.4v-.3c0-.4.1-.7.4-.7l2.2-.6c.3-.3.5-.6.5-1.2V73c0-.5-.2-1-.6-1.2a6 6 0 0 0-2.2-.5.7.7 0 0 1-.4-.3v-1.2a163.6 163.6 0 0 0 5.2.2h6c3 0 5.1.6 6.7 2 1.6 1.2 2.4 3 2.4 5.3a7 7 0 0 1-2.4 5.5 9 9 0 0 1-2.8 1.6c-1.1.5-2.4.7-3.9.7h-3Zm1.2-2c1.6 0 3-.3 4-1.2 1-.8 1.4-2.2 1.4-4.2 0-1.7-.4-3.1-1.2-4.1-.7-1-2.1-1.5-4.2-1.5h-1.2v11h1.2Zm26.7 10v.7l.4.5.7.3 1.4.3c.3 0 .4.2.4.6v.8a328 328 0 0 0-8-.2l-2.7.2-.1-.4v-.4c0-.4.1-.6.4-.6l1.3-.3c.4 0 .6-.2.8-.3l.3-.5V72.4a1 1 0 0 0-.3-.5c-.2-.2-.4-.3-.8-.3l-1.3-.3c-.3-.1-.4-.3-.4-.7v-.8a397.2 397.2 0 0 0 5.4.2h15.4a93.1 93.1 0 0 0 5.2-.2v.4l.1.4c0 .4-.1.6-.4.7-.5 0-1 .2-1.3.3-.4 0-.6.1-.8.3a1 1 0 0 0-.3.5v21.3c0 .2.1.3.3.5l.8.3 1.3.3c.3 0 .4.2.4.6v.8a393.5 393.5 0 0 0-5.3-.2 98.7 98.7 0 0 0-5.4.2v-.8c0-.4 0-.6.3-.6l1.3-.3c.4 0 .6-.2.8-.3.2-.2.3-.3.3-.5V72h-10.2v21Z" fill="#DA802D"/><path d="m152 44 29 13M51 39c-21.7 5.6-29.6 9-49 19M26 107l38.1 21m0 0L78 107m-13.9 21-4.6-21M157 107l-38.1 21m0 0L105 107m13.9 21 4.6-21M83 59l4.9-9h8.5l3.6 9M118 45l-9 14M43 48l4 12" stroke="#DA802D" stroke-width="5"/></svg>
